material/.icons/material/flashlight.svg

<svg xmlns="http://www.w3.org/2000/svg" viewBox="0 0 24 24"><path d="M9 10L6 5h12l-3 5H9m9-6H6V2h12v2M9 22V11h6v11H9m3-9a1 1 0 00-1 1 1 1 0 001 1 1 1 0 001-1 1 1 0 00-1-1z"/></svg>

<?xml version="1.0" encoding="UTF-8"?><!DOCTYPE svg PUBLIC "-//W3C//DTD SVG 1.1//EN" "http://www.w3.org/Graphics/SVG/1.1/DTD/svg11.dtd"><svg xmlns="http://www.w3.org/2000/svg" xmlns:xlink="http://www.w3.org/1999/xlink" version="1.1" id="mdi-flashlight" width="24" height="24" viewBox="0 0 24 24"><path d="M9,10L6,5H18L15,10H9M18,4H6V2H18V4M9,22V11H15V22H9M12,13A1,1 0 0,0 11,14A1,1 0 0,0 12,15A1,1 0 0,0 13,14A1,1 0 0,0 12,13Z" /></svg>
